X: 1
T: Soviet
M: 4/4
L: 1/2
K: C
c G3// A// B E/ E/ | A G3// F// G C/ C/ | D D/ E/ F F/ G/ | A B/ c/ d3/ G/ |\
e d3// c// d B/ G/ | c B3// A// B E/ E/ | A G/ F/ G C/ C/ | c B3// A// G2 |]
